Yaru++/mimetypes/48/text-x-log.svg

<svg height="48" viewBox="0 0 12.7 12.7" width="48" xmlns="http://www.w3.org/2000/svg" xmlns:xlink="http://www.w3.org/1999/xlink"><linearGradient id="a" gradientTransform="matrix(.27048312 0 0 .25881223 -86.554207 -15.658136)" gradientUnits="userSpaceOnUse" x1="344" x2="344" y1="62" y2="106"><stop offset="0" stop-color="#fff"/><stop offset=".125" stop-color="#fff" stop-opacity=".098039"/><stop offset=".92500001" stop-color="#fff" stop-opacity=".098039"/><stop offset="1" stop-color="#fff" stop-opacity=".498039"/></linearGradient><linearGradient id="b" gradientTransform="matrix(0 -.02931857 .03063979 0 -3.107438 13.328834)" gradientUnits="userSpaceOnUse" x1="459.03448" x2="35.310345" y1="419.23337" y2="207.36522"><stop offset="0" stop-color="#f2f2f2"/><stop offset="1" stop-color="#f9f9f9"/></linearGradient><g enable-background="new" fill="#888" stroke-width=".048884" transform="scale(.97818798 1.0222984)"><path d="m4.255218.38822207c-.601257-.008763-1.0748134.013246-1.4644119.075824-.3896012.0625766-.7084088.17995185-.9419386.40287744-.233527.22292589-.3567834.52783999-.4215722.90078789-.0647889.3729482-.0774366.8269934-.0744884 1.4037531v3.1694389 3.1709554c-.00292.5758732.00976 1.0296892.074488 1.4022362.064789.372949.1880452.677863.4215722.900788.2335298.222926.5523374.340302.9419386.402878.3896012.06258.8630846.07582 1.4644119.07582h4.4735363c.601327 0 1.074565-.01323 1.4633571-.07582.388792-.0626.706626-.180377.939293-.403382.23267-.223006.355198-.527703.420517-.900284.06532-.372578.07924-.825702.07924-1.4022362v-3.1709554-3.1057468l-2.9024071-2.78172601z" fill="#000" opacity=".1"/><path d="m4.255383.38822207c-2.3867918 0-2.6436074.23457447-2.631909 2.52299993v3.1708692 3.1708691c-.011712 2.2884257.2451172 2.5230007 2.631909 2.5230007h4.4735713c2.3867917 0 2.6319087-.234549 2.6319087-2.5230007v-3.1708691l-.000181-3.1057468-2.7048307-2.58812233z" fill="none" opacity=".2" stroke="#000" stroke-width=".529167"/><path d="m4.255383.38822207c-2.3867918 0-2.6436074.23457447-2.631909 2.52299993v3.1708692 3.1708691c-.011712 2.2884257.2451172 2.5230007 2.631909 2.5230007h4.4735713c2.3867917 0 2.6319087-.234549 2.6319087-2.5230007v-3.1708691l-.000181-3.1057468-2.7048307-2.58812233z" fill="url(#b)"/><path d="m1.7587399 8.0231216h.7299934l1.2983189-3.3127966 1.7310947 5.1762447 1.0819324-3.1057468.43277 1.2422987.432776 1.1387738.432773-1.1387738h3.3282427" fill="none" stroke="#5d5d5d" stroke-linecap="square" stroke-width=".264583"/><path d="m1.62329 6.0820912v3.1709553c-.011712 2.2884245.2451362 2.5229145 2.631928 2.5229145h4.4735363c2.3867917 0 2.6319277-.234464 2.6319277-2.5229145v-3.1709553z" fill="#fff" opacity=".2"/><path d="m6.4919862.38822207v11.38773893h2.2367681c2.3867917 0 2.6319277-.234464 2.6319277-2.5229145v-3.1709553-3.1057468l-2.7048307-2.58812233z" fill="#fff" opacity=".1"/><path d="m4.255218.38822207c-2.3867918 0-2.6436264.23448829-2.631928 2.52291383v3.1709553 3.1709553c-.011712 2.2884245.2451362 2.5229145 2.631928 2.5229145h4.4735363c2.3867917 0 2.6319277-.234464 2.6319277-2.5229145v-3.1709553-3.1057468h-.270483v3.1057468 3.1709553c0 .567692-.01661 1.0017835-.07185 1.3168075-.05523.315026-.142997.498043-.269956.619736-.126959.121681-.317644.205919-.646095.258813-.3284527.05288-.7814797.06874-1.3735477.06874h-4.4735323c-.5920687 0-1.045658-.01584-1.3751335-.06874-.3294728-.052925-.5216998-.137041-.649265-.258813-.1275626-.121779-.2152938-.304575-.269953-.619229-.0546619-.314653-.0699983-.7488507-.0670934-1.3163035v-.0005177-3.1714486-3.1714608-.0005176c-.0028941-.5674531.0124423-1.0016487.0670934-1.316303.0546619-.3146543.1423904-.4974573.269953-.61922842.1275625-.12177116.3203223-.2058929.6497951-.25881224.3294728-.052895.7825347-.06873483 1.3746034-.06873483h4.4006333v-.25881224z" fill="url(#a)" opacity=".4"/><path d="m11.360682 3.2351566v-.2588122l-2.7048307-2.58812233h-.270483v1.08935463.041739.022418c0 1.4731541.206097 1.700311 1.7492137 1.6930909z" fill="#000" opacity=".2"/><path d="m11.360682 2.9760131-2.7048307-2.58779154v.95991954.041739.022418c0 1.473154.07095 1.5709343 1.6140697 1.5637142z" fill="#faf8f6"/></g></svg>

<?xml version="1.0" encoding="UTF-8" standalone="no"?>
<svg
   xmlns:dc="http://purl.org/dc/elements/1.1/"
   xmlns:cc="http://creativecommons.org/ns#"
   xmlns:rdf="http://www.w3.org/1999/02/22-rdf-syntax-ns#"
   xmlns:svg="http://www.w3.org/2000/svg"
   xmlns="http://www.w3.org/2000/svg"
   xmlns:xlink="http://www.w3.org/1999/xlink"
   xmlns:sodipodi="http://sodipodi.sourceforge.net/DTD/sodipodi-0.dtd"
   xmlns:inkscape="http://www.inkscape.org/namespaces/inkscape"
   height="48"
   viewBox="0 0 12.7 12.7"
   width="48"
   version="1.1"
   id="svg35"
   sodipodi:docname="text-x-log.svg"
   inkscape:version="0.92.5 (2060ec1f9f, 2020-04-08)">
  <metadata
     id="metadata41">
    <rdf:RDF>
      <cc:Work
         rdf:about="">
        <dc:format>image/svg+xml</dc:format>
        <dc:type
           rdf:resource="http://purl.org/dc/dcmitype/StillImage" />
        <dc:title />
      </cc:Work>
    </rdf:RDF>
  </metadata>
  <defs
     id="defs39">
    <clipPath
       clipPathUnits="userSpaceOnUse"
       id="clipPath994">
      <path
         style="color:#000000;display:inline;overflow:visible;visibility:visible;fill:#cdcdcd;fill-opacity:1;fill-rule:nonzero;stroke:none;stroke-width:2;stroke-miterlimit:4;stroke-dasharray:none;stroke-opacity:1;marker:none;enable-background:accumulate"
         d="m 335.73108,62 c -8.82418,0 -9.77365,0.90635 -9.7304,9.74838 V 84 96.25162 c -0.0433,8.84203 0.90622,9.74838 9.7304,9.74838 h 16.53919 c 8.82418,0 9.7304,-0.90625 9.7304,-9.74838 V 84 71.74838 C 362.00067,62.90625 361.09445,62 352.27027,62 Z"
         id="path996"
         inkscape:connector-curvature="0"
         sodipodi:nodetypes="scccssscsss" />
    </clipPath>
    <clipPath
       clipPathUnits="userSpaceOnUse"
       id="clipPath994-3">
      <path
         style="color:#000000;display:inline;overflow:visible;visibility:visible;fill:#cdcdcd;fill-opacity:1;fill-rule:nonzero;stroke:none;stroke-width:2;stroke-miterlimit:4;stroke-dasharray:none;stroke-opacity:1;marker:none;enable-background:accumulate"
         d="m 335.73108,62 c -8.82418,0 -9.77365,0.90635 -9.7304,9.74838 V 84 96.25162 c -0.0433,8.84203 0.90622,9.74838 9.7304,9.74838 h 16.53919 c 8.82418,0 9.7304,-0.90625 9.7304,-9.74838 V 84 71.74838 C 362.00067,62.90625 361.09445,62 352.27027,62 Z"
         id="path996-6"
         inkscape:connector-curvature="0"
         sodipodi:nodetypes="scccssscsss" />
    </clipPath>
    <clipPath
       clipPathUnits="userSpaceOnUse"
       id="clipPath994-36">
      <path
         style="color:#000000;display:inline;overflow:visible;visibility:visible;fill:#cdcdcd;fill-opacity:1;fill-rule:nonzero;stroke:none;stroke-width:2;stroke-miterlimit:4;stroke-dasharray:none;stroke-opacity:1;marker:none;enable-background:accumulate"
         d="m 335.73108,62 c -8.82418,0 -9.77365,0.90635 -9.7304,9.74838 V 84 96.25162 c -0.0433,8.84203 0.90622,9.74838 9.7304,9.74838 h 16.53919 c 8.82418,0 9.7304,-0.90625 9.7304,-9.74838 V 84 71.74838 C 362.00067,62.90625 361.09445,62 352.27027,62 Z"
         id="path996-7"
         inkscape:connector-curvature="0"
         sodipodi:nodetypes="scccssscsss" />
    </clipPath>
    <clipPath
       clipPathUnits="userSpaceOnUse"
       id="clipPath994-35">
      <path
         style="color:#000000;display:inline;overflow:visible;visibility:visible;fill:#cdcdcd;fill-opacity:1;fill-rule:nonzero;stroke:none;stroke-width:2;stroke-miterlimit:4;stroke-dasharray:none;stroke-opacity:1;marker:none;enable-background:accumulate"
         d="m 335.73108,62 c -8.82418,0 -9.77365,0.90635 -9.7304,9.74838 V 84 96.25162 c -0.0433,8.84203 0.90622,9.74838 9.7304,9.74838 h 16.53919 c 8.82418,0 9.7304,-0.90625 9.7304,-9.74838 V 84 71.74838 C 362.00067,62.90625 361.09445,62 352.27027,62 Z"
         id="path996-62"
         inkscape:connector-curvature="0"
         sodipodi:nodetypes="scccssscsss" />
    </clipPath>
    <clipPath
       clipPathUnits="userSpaceOnUse"
       id="clipPath994-9">
      <path
         style="color:#000000;display:inline;overflow:visible;visibility:visible;fill:#cdcdcd;fill-opacity:1;fill-rule:nonzero;stroke:none;stroke-width:2;stroke-miterlimit:4;stroke-dasharray:none;stroke-opacity:1;marker:none;enable-background:accumulate"
         d="m 335.73108,62 c -8.82418,0 -9.77365,0.90635 -9.7304,9.74838 V 84 96.25162 c -0.0433,8.84203 0.90622,9.74838 9.7304,9.74838 h 16.53919 c 8.82418,0 9.7304,-0.90625 9.7304,-9.74838 V 84 71.74838 C 362.00067,62.90625 361.09445,62 352.27027,62 Z"
         id="path996-1"
         inkscape:connector-curvature="0"
         sodipodi:nodetypes="scccssscsss" />
    </clipPath>
    <clipPath
       clipPathUnits="userSpaceOnUse"
       id="clipPath994-2">
      <path
         style="color:#000000;display:inline;overflow:visible;visibility:visible;fill:#cdcdcd;fill-opacity:1;fill-rule:nonzero;stroke:none;stroke-width:2;stroke-miterlimit:4;stroke-dasharray:none;stroke-opacity:1;marker:none;enable-background:accumulate"
         d="m 335.73108,62 c -8.82418,0 -9.77365,0.90635 -9.7304,9.74838 V 84 96.25162 c -0.0433,8.84203 0.90622,9.74838 9.7304,9.74838 h 16.53919 c 8.82418,0 9.7304,-0.90625 9.7304,-9.74838 V 84 71.74838 C 362.00067,62.90625 361.09445,62 352.27027,62 Z"
         id="path996-70"
         inkscape:connector-curvature="0"
         sodipodi:nodetypes="scccssscsss" />
    </clipPath>
    <linearGradient
       gradientTransform="matrix(0.27048312,0,0,0.25881223,-86.554207,-15.658136)"
       inkscape:collect="always"
       xlink:href="#linearGradient927"
       id="linearGradient1004"
       x1="344"
       y1="62"
       x2="344"
       y2="106"
       gradientUnits="userSpaceOnUse" />
    <linearGradient
       inkscape:collect="always"
       id="linearGradient927">
      <stop
         style="stop-color:#ffffff;stop-opacity:1;"
         offset="0"
         id="stop923" />
      <stop
         id="stop933"
         offset="0.125"
         style="stop-color:#ffffff;stop-opacity:0.09803922" />
      <stop
         id="stop931"
         offset="0.92500001"
         style="stop-color:#ffffff;stop-opacity:0.09803922" />
      <stop
         style="stop-color:#ffffff;stop-opacity:0.49803922"
         offset="1"
         id="stop925" />
    </linearGradient>
    <linearGradient
       inkscape:collect="always"
       xlink:href="#linearGradient4338"
       id="linearGradient1024"
       gradientUnits="userSpaceOnUse"
       gradientTransform="matrix(0,-0.02931857,0.03063979,0,-3.107438,13.328834)"
       x1="459.03448"
       y1="419.23337"
       x2="35.310345"
       y2="207.36522" />
    <linearGradient
       inkscape:collect="always"
       id="linearGradient4338">
      <stop
         style="stop-color:#f2f2f2;stop-opacity:1"
         offset="0"
         id="stop4340" />
      <stop
         style="stop-color:#f9f9f9;stop-opacity:1"
         offset="1"
         id="stop4342" />
    </linearGradient>
  </defs>
  <sodipodi:namedview
     pagecolor="#ffffff"
     bordercolor="#666666"
     borderopacity="1"
     objecttolerance="10"
     gridtolerance="10"
     guidetolerance="10"
     inkscape:pageopacity="0"
     inkscape:pageshadow="2"
     inkscape:window-width="1920"
     inkscape:window-height="1024"
     id="namedview37"
     showgrid="false"
     inkscape:zoom="4.9166667"
     inkscape:cx="26.619528"
     inkscape:cy="24"
     inkscape:window-x="0"
     inkscape:window-y="28"
     inkscape:window-maximized="1"
     inkscape:current-layer="text130-3" />
  <linearGradient
     id="a"
     gradientUnits="userSpaceOnUse"
     x1="344"
     x2="344"
     y1="62"
     y2="106">
    <stop
       offset="0"
       stop-color="#fff"
       id="stop2" />
    <stop
       offset=".125"
       stop-color="#fff"
       stop-opacity=".098039"
       id="stop4" />
    <stop
       offset=".92500001"
       stop-color="#fff"
       stop-opacity=".098039"
       id="stop6" />
    <stop
       offset="1"
       stop-color="#fff"
       stop-opacity=".498039"
       id="stop8" />
  </linearGradient>
  <clipPath
     id="b">
    <path
       d="m335.73108 62c-8.82418 0-9.77365.90635-9.7304 9.74838v12.25162 12.25162c-.0433 8.84203.90622 9.74838 9.7304 9.74838h16.53919c8.82418 0 9.7304-.90625 9.7304-9.74838v-12.25162-12.25162c0-8.84213-.90622-9.74838-9.7304-9.74838z"
       id="path11" />
  </clipPath>
  <linearGradient
     id="c"
     gradientTransform="matrix(0 -.02997233 .02997147 0 -3.039659 297.92607)"
     gradientUnits="userSpaceOnUse"
     x1="459.03448"
     x2="35.310345"
     y1="419.23337"
     y2="207.36522">
    <stop
       offset="0"
       stop-color="#f2f2f2"
       id="stop14" />
    <stop
       offset="1"
       stop-color="#f9f9f9"
       id="stop16" />
  </linearGradient>
  <g
     aria-label="iso"
     transform="scale(0.97818798,1.0222984)"
     style="font-style:normal;font-weight:normal;font-size:1.99897027px;line-height:1.25;font-family:sans-serif;letter-spacing:0px;word-spacing:0px;display:inline;opacity:1;fill:#888888;fill-opacity:1;stroke:none;stroke-width:0.04888422;enable-background:new"
     id="text130-3">
    <flowRoot
       xml:space="preserve"
       id="flowRoot930"
       style="fill:black;fill-opacity:1;stroke:none;font-family:sans-serif;font-style:normal;font-weight:normal;font-size:40px;line-height:1.25;letter-spacing:0px;word-spacing:0px"><flowRegion
         id="flowRegion932"><rect
           id="rect934"
           width="115.11864"
           height="97.220337"
           x="-21.152542"
           y="-27.864407" /></flowRegion><flowPara
         id="flowPara936" /></flowRoot>    <path
       style="color:#000000;font-style:normal;font-variant:normal;font-weight:normal;font-stretch:normal;font-size:medium;line-height:normal;font-family:sans-serif;font-variant-ligatures:normal;font-variant-position:normal;font-variant-caps:normal;font-variant-numeric:normal;font-variant-alternates:normal;font-feature-settings:normal;text-indent:0;text-align:start;text-decoration:none;text-decoration-line:none;text-decoration-style:solid;text-decoration-color:#000000;letter-spacing:normal;word-spacing:normal;text-transform:none;writing-mode:lr-tb;direction:ltr;text-orientation:mixed;dominant-baseline:auto;baseline-shift:baseline;text-anchor:start;white-space:normal;shape-padding:0;clip-rule:nonzero;display:inline;overflow:visible;visibility:visible;opacity:0.1;isolation:auto;mix-blend-mode:normal;color-interpolation:sRGB;color-interpolation-filters:linearRGB;solid-color:#000000;solid-opacity:1;vector-effect:none;fill:#000000;fill-opacity:1;fill-rule:nonzero;stroke:none;stroke-width:0.52916664;stroke-linecap:butt;stroke-linejoin:miter;stroke-miterlimit:4;stroke-dasharray:none;stroke-dashoffset:0;stroke-opacity:1;marker:none;color-rendering:auto;image-rendering:auto;shape-rendering:auto;text-rendering:auto;enable-background:accumulate"
       d="M 4.255218,0.38822207 C 3.653961,0.37945907 3.1804046,0.40146807 2.7908061,0.46404607 2.4012049,0.52662267 2.0823973,0.64399792 1.8488675,0.86692351 1.6153405,1.0898494 1.4920841,1.3947635 1.4272953,1.7677114 1.3625064,2.1406596 1.3498587,2.5947048 1.3528069,3.1714645 v 3.1694389 3.1709554 c -0.00292,0.5758732 0.00976,1.0296892 0.074488,1.4022362 0.064789,0.372949 0.1880452,0.677863 0.4215722,0.900788 0.2335298,0.222926 0.5523374,0.340302 0.9419386,0.402878 0.3896012,0.06258 0.8630846,0.07582 1.4644119,0.07582 h 4.4735363 c 0.601327,0 1.074565,-0.01323 1.4633571,-0.07582 0.388792,-0.0626 0.706626,-0.180377 0.939293,-0.403382 0.23267,-0.223006 0.355198,-0.527703 0.420517,-0.900284 0.06532,-0.372578 0.07924,-0.825702 0.07924,-1.4022362 V 6.3409034 3.2351566 L 8.7287539,0.45343059 Z"
       id="path1020"
       inkscape:connector-curvature="0"
       sodipodi:nodetypes="sccsccccccsscccscccs" />
    <path
       style="color:#000000;display:inline;overflow:visible;visibility:visible;opacity:0.2;fill:none;fill-opacity:1;fill-rule:nonzero;stroke:#000000;stroke-width:0.52916664;stroke-miterlimit:4;stroke-dasharray:none;stroke-opacity:1;marker:none;enable-background:accumulate"
       d="m 4.255383,0.38822207 c -2.3867918,0 -2.6436074,0.23457447 -2.631909,2.52299993 V 6.0820912 9.2529603 C 1.611762,11.541386 1.8685912,11.775961 4.255383,11.775961 h 4.4735713 c 2.3867917,0 2.6319087,-0.234549 2.6319087,-2.5230007 V 6.0820912 L 11.360682,2.9763444 8.6558513,0.38822207 Z"
       id="path958"
       inkscape:connector-curvature="0"
       sodipodi:nodetypes="scccssscccs" />
    <path
       style="color:#000000;display:inline;overflow:visible;visibility:visible;fill:url(#linearGradient1024);fill-opacity:1;fill-rule:nonzero;stroke:none;stroke-width:0.26458332;marker:none;enable-background:accumulate"
       d="m 4.255383,0.38822207 c -2.3867918,0 -2.6436074,0.23457447 -2.631909,2.52299993 V 6.0820912 9.2529603 C 1.611762,11.541386 1.8685912,11.775961 4.255383,11.775961 h 4.4735713 c 2.3867917,0 2.6319087,-0.234549 2.6319087,-2.5230007 V 6.0820912 L 11.360682,2.9763444 8.6558513,0.38822207 Z"
       id="path964"
       inkscape:connector-curvature="0"
       sodipodi:nodetypes="scccssscccs" />
    <path
       sodipodi:nodetypes="ccccccccc"
       inkscape:connector-curvature="0"
       id="path4577"
       d="M 1.7587399,8.0231216 H 2.4887333 L 3.7870522,4.710325 5.5181469,9.8865697 6.6000793,6.7808229 l 0.43277,1.2422987 0.432776,1.1387738 0.432773,-1.1387738 h 3.3282427"
       style="display:inline;fill:none;fill-rule:evenodd;stroke:#5d5d5d;stroke-width:0.26458332;stroke-linecap:square;stroke-linejoin:miter;stroke-miterlimit:4;stroke-dasharray:none;stroke-opacity:1;enable-background:new" />
    <path
       style="color:#000000;display:inline;overflow:visible;visibility:visible;opacity:0.2;fill:#ffffff;fill-opacity:1;fill-rule:nonzero;stroke:none;stroke-width:0.26458332;marker:none;enable-background:accumulate"
       d="M 1.62329,6.0820912 V 9.2530465 C 1.611578,11.541471 1.8684262,11.775961 4.255218,11.775961 h 4.4735363 c 2.3867917,0 2.6319277,-0.234464 2.6319277,-2.5229145 V 6.0820912 Z"
       id="path1006"
       inkscape:connector-curvature="0" />
    <path
       style="color:#000000;display:inline;overflow:visible;visibility:visible;opacity:0.1;fill:#ffffff;fill-opacity:1;fill-rule:nonzero;stroke:none;stroke-width:0.26458332;marker:none;enable-background:accumulate"
       d="M 6.4919862,0.38822207 V 11.775961 h 2.2367681 c 2.3867917,0 2.6319277,-0.234464 2.6319277,-2.5229145 V 6.0820912 2.9763444 L 8.6558513,0.38822207 Z"
       id="path1013"
       inkscape:connector-curvature="0"
       sodipodi:nodetypes="ccsscccc" />
    <path
       style="color:#000000;font-style:normal;font-variant:normal;font-weight:normal;font-stretch:normal;font-size:medium;line-height:normal;font-family:sans-serif;font-variant-ligatures:normal;font-variant-position:normal;font-variant-caps:normal;font-variant-numeric:normal;font-variant-alternates:normal;font-feature-settings:normal;text-indent:0;text-align:start;text-decoration:none;text-decoration-line:none;text-decoration-style:solid;text-decoration-color:#000000;letter-spacing:normal;word-spacing:normal;text-transform:none;writing-mode:lr-tb;direction:ltr;text-orientation:mixed;dominant-baseline:auto;baseline-shift:baseline;text-anchor:start;white-space:normal;shape-padding:0;clip-rule:nonzero;display:inline;overflow:visible;visibility:visible;opacity:0.4;isolation:auto;mix-blend-mode:normal;color-interpolation:sRGB;color-interpolation-filters:linearRGB;solid-color:#000000;solid-opacity:1;vector-effect:none;fill:url(#linearGradient1004);fill-opacity:1;fill-rule:nonzero;stroke:none;stroke-width:0.52916664;stroke-linecap:butt;stroke-linejoin:miter;stroke-miterlimit:4;stroke-dasharray:none;stroke-dashoffset:0;stroke-opacity:1;marker:none;color-rendering:auto;image-rendering:auto;shape-rendering:auto;text-rendering:auto;enable-background:accumulate"
       clip-path="none"
       d="m 4.255218,0.38822207 c -2.3867918,0 -2.6436264,0.23448829 -2.631928,2.52291383 V 6.0820912 9.2530465 C 1.611578,11.541471 1.8684262,11.775961 4.255218,11.775961 h 4.4735363 c 2.3867917,0 2.6319277,-0.234464 2.6319277,-2.5229145 V 6.0820912 2.9763444 h -0.270483 v 3.1057468 3.1709553 c 0,0.567692 -0.01661,1.0017835 -0.07185,1.3168075 -0.05523,0.315026 -0.142997,0.498043 -0.269956,0.619736 -0.126959,0.121681 -0.317644,0.205919 -0.646095,0.258813 -0.3284527,0.05288 -0.7814797,0.06874 -1.3735477,0.06874 H 4.255218 c -0.5920687,0 -1.045658,-0.01584 -1.3751335,-0.06874 C 2.5506117,11.395478 2.3583847,11.311362 2.2308195,11.18959 2.1032569,11.067811 2.0155257,10.885015 1.9608665,10.570361 1.9062046,10.255708 1.8908682,9.8215103 1.8937731,9.2540575 V 9.2535398 6.0820912 2.9106304 2.9101128 C 1.890879,2.3426597 1.9062154,1.9084641 1.9608665,1.5938098 2.0155284,1.2791555 2.1032569,1.0963525 2.2308195,0.97458138 2.358382,0.85281022 2.5511418,0.76868848 2.8806146,0.71576914 3.2100874,0.66287414 3.6631493,0.64703431 4.255218,0.64703431 H 8.6558513 V 0.38822207 Z"
       id="path990"
       inkscape:connector-curvature="0" />
    <path
       inkscape:connector-curvature="0"
       style="color:#000000;display:inline;overflow:visible;visibility:visible;opacity:0.2;fill:#000000;fill-opacity:1;fill-rule:nonzero;stroke:none;stroke-width:0.06615189;marker:none;enable-background:accumulate"
       d="M 11.360682,3.2351566 V 2.9763444 L 8.6558513,0.38822207 h -0.270483 v 1.08935463 0.041739 0.022418 c 0,1.4731541 0.206097,1.700311 1.7492137,1.6930909 z"
       id="rect4158-0-3-62-2"
       sodipodi:nodetypes="ccccccscc" />
    <path
       inkscape:connector-curvature="0"
       style="color:#000000;display:inline;overflow:visible;visibility:visible;fill:#faf8f6;fill-opacity:1;fill-rule:nonzero;stroke:none;stroke-width:0.06615189;marker:none;enable-background:accumulate"
       d="M 11.360682,2.9760131 8.6558513,0.38822156 v 0.95991954 0.041739 0.022418 c 0,1.473154 0.07095,1.5709343 1.6140697,1.5637142 z"
       id="rect4158-0-3-62"
       sodipodi:nodetypes="ccccscc" />
  </g>
</svg>
